X:60
T:Linnington’s Waltz. RHu.060
S:R.Hughes MS,1823,Whitchurch,Shrops.
R:Waltz
A:Whitchurch, Shropshire
Z:Neil Brookes 2006
M:3/8
L:1/8
Q:3/8=60
K:D
A|dcd|e>fg|fdd|ecA|dcd|e>fg|fdc|d3::!
aff|gee|fdd|ecA|aff|gee|fdc|d3:|

